assets/images/icons/src/ambulance.svg

<?xml version="1.0" encoding="utf-8"?>
<!-- Generated by IcoMoon.io -->
<!DOCTYPE svg PUBLIC "-//W3C//DTD SVG 1.1//EN" "http://www.w3.org/Graphics/SVG/1.1/DTD/svg11.dtd">
<svg version="1.1" xmlns="http://www.w3.org/2000/svg" xmlns:xlink="http://www.w3.org/1999/xlink" width="15" height="14" viewBox="0 0 15 14">
<path fill="#444444" d="M5 11q0-0.414-0.293-0.707t-0.707-0.293-0.707 0.293-0.293 0.707 0.293 0.707 0.707 0.293 0.707-0.293 0.293-0.707zM2 7h3v-2h-1.234q-0.109 0.016-0.172 0.070l-1.523 1.523q-0.055 0.094-0.070 0.172v0.234zM12 11q0-0.414-0.293-0.707t-0.707-0.293-0.707 0.293-0.293 0.707 0.293 0.707 0.707 0.293 0.707-0.293 0.293-0.707zM13 5.75v-1.5q0-0.109-0.070-0.18t-0.18-0.070h-1.75v-1.75q0-0.109-0.070-0.18t-0.18-0.070h-1.5q-0.109 0-0.18 0.070t-0.070 0.18v1.75h-1.75q-0.109 0-0.18 0.070t-0.070 0.18v1.5q0 0.109 0.070 0.18t0.18 0.070h1.75v1.75q0 0.109 0.070 0.18t0.18 0.070h1.5q0.109 0 0.18-0.070t0.070-0.18v-1.75h1.75q0.109 0 0.18-0.070t0.070-0.18zM15 1.5v9q0 0.203-0.148 0.352t-0.352 0.148h-1.5q0 0.828-0.586 1.414t-1.414 0.586-1.414-0.586-0.586-1.414h-3q0 0.828-0.586 1.414t-1.414 0.586-1.414-0.586-0.586-1.414h-1q-0.203 0-0.352-0.148t-0.148-0.352 0.148-0.352 0.352-0.148v-3.25q0-0.203 0.102-0.453t0.25-0.398l1.547-1.547q0.148-0.148 0.398-0.25t0.453-0.102h1.25v-2.5q0-0.203 0.148-0.352t0.352-0.148h9q0.203 0 0.352 0.148t0.148 0.352z"></path>
</svg>

<svg xmlns="http://www.w3.org/2000/svg" width="15" height="14" viewBox="0 0 15 14"><path fill="#444" d="M5 11q0-.414-.293-.707T4 10t-.707.293T3 11t.293.707T4 12t.707-.293T5 11zM2 7h3V5H3.766q-.109.016-.172.07L2.071 6.593q-.055.094-.07.172v.234zm10 4q0-.414-.293-.707T11 10t-.707.293T10 11t.293.707T11 12t.707-.293T12 11zm1-5.25v-1.5q0-.109-.07-.18T12.75 4H11V2.25q0-.109-.07-.18T10.75 2h-1.5q-.109 0-.18.07T9 2.25V4H7.25q-.109 0-.18.07T7 4.25v1.5q0 .109.07.18t.18.07H9v1.75q0 .109.07.18t.18.07h1.5q.109 0 .18-.07t.07-.18V6h1.75q.109 0 .18-.07t.07-.18zm2-4.25v9q0 .203-.148.352T14.5 11H13q0 .828-.586 1.414T11 13t-1.414-.586T9 11H6q0 .828-.586 1.414T4 13t-1.414-.586T2 11H1q-.203 0-.352-.148T.5 10.5t.148-.352T1 10V6.75q0-.203.102-.453t.25-.398l1.547-1.547q.148-.148.398-.25T3.75 4H5V1.5q0-.203.148-.352T5.5 1h9q.203 0 .352.148T15 1.5z"/></svg>
